; generated by Slic3r 1.2.9 on 2018-05-10 at 20:17:42

; external perimeters extrusion width = 0.30mm
; perimeters extrusion width = 0.30mm
; infill extrusion width = 0.30mm
; solid infill extrusion width = 0.30mm
; top infill extrusion width = 0.30mm

M107
M190 S57 ; set bed temperature
G10 P0 S195 R-273					; Set tool 0 operating and standby temperatures
G28								; home all axes 
G32								; execute bed Z-plane  compensation at bed.g 4 points
M83								; set extruder to relative mode
T0									; select tool ZERO
M116                                                             ; wait for temperatures



G21 ; set units to millimeters
G90 ; use absolute coordinates
M83 ; use relative distances for extrusion
G1 E-3.50000 F2400.00000
G1 Z0.300 F9000.000
G1 X62.374 Y37.788 F9000.000
G1 E3.50000 F2400.00000
G1 X64.178 Y35.930 E0.14073 F1200.000
G1 X66.461 Y34.707 E0.14073
G1 X69.256 Y34.230 E0.15407
G1 X70.744 Y34.230 E0.08082
G1 X73.303 Y34.628 E0.14073
G1 X75.621 Y35.783 E0.14073 F1200.000
G1 X77.479 Y37.587 E0.14073
G1 X78.703 Y39.870 E0.14073
G1 X79.179 Y42.666 E0.15407
G1 X79.179 Y97.334 E2.97031
G1 X78.782 Y99.894 E0.14073
G1 X77.626 Y102.212 E0.14073
G1 X75.822 Y104.070 E0.14073
G1 X73.539 Y105.293 E0.14073
G1 X70.744 Y105.770 E0.15407
G1 X69.256 Y105.770 E0.08082
G1 X66.697 Y105.372 E0.14073
G1 X64.379 Y104.217 E0.14073
G1 X62.521 Y102.413 E0.14073
G1 X61.297 Y100.130 E0.14073
G1 X60.821 Y97.334 E0.15407
G1 X60.821 Y42.666 E2.97031
G1 X61.218 Y40.106 E0.14073
G1 X62.354 Y37.828 E0.13828
G1 E-3.50000 F2400.00000
G1 X65.989 Y41.312 F9000.000
G1 E3.50000 F2400.00000
G1 X67.903 Y39.399 E0.14706 F1200.000
G1 X72.097 Y39.399 E0.22788
G1 X74.011 Y41.312 E0.14706
G1 X74.011 Y48.681 E0.40038 F1200.000
G1 X72.097 Y50.595 E0.14706
G1 X67.903 Y50.595 E0.22788
G1 X65.989 Y48.681 E0.14706
G1 X65.989 Y41.357 E0.39794
G1 X66.425 Y41.493 F9000.000
G1 X68.083 Y39.834 E0.12745 F1200.000
G1 X71.917 Y39.834 E0.20827
G1 X73.575 Y41.493 E0.12745 F1200.000
G1 X73.575 Y48.501 E0.38078
G1 X71.917 Y50.160 E0.12745
G1 X68.083 Y50.160 E0.20827
G1 X66.425 Y48.501 E0.12745
G1 X66.425 Y41.538 E0.37833
G1 X66.860 Y41.673 F9000.000
G1 X68.264 Y40.270 E0.10784 F1200.000
G1 X71.736 Y40.270 E0.18866
G1 X73.140 Y41.673 E0.10784
G1 X73.140 Y48.321 E0.36117 F1200.000
G1 X71.736 Y49.724 E0.10784
G1 X68.264 Y49.724 E0.18866
G1 X66.860 Y48.321 E0.10784
G1 X66.860 Y41.718 E0.35872
G1 X67.296 Y41.854 F9000.000
G1 X68.444 Y40.705 E0.08823 F1200.000
G1 X71.556 Y40.705 E0.16905
G1 X72.704 Y41.854 E0.08823 F1200.000
G1 X72.704 Y48.140 E0.34156
G1 X71.556 Y49.288 E0.08823
G1 X68.444 Y49.288 E0.16905
G1 X67.296 Y48.140 E0.08823
G1 X67.296 Y41.899 E0.33912
G1 X67.732 Y42.034 F9000.000
G1 X68.625 Y41.141 E0.06863 F1200.000
G1 X71.375 Y41.141 E0.14945
G1 X72.268 Y42.034 E0.06863
G1 X72.268 Y47.960 E0.32195 F1200.000
G1 X71.375 Y48.853 E0.06863
G1 X68.625 Y48.853 E0.14945
G1 X67.732 Y47.960 E0.06863
G1 X67.732 Y42.079 E0.31951
G1 X68.167 Y42.215 F9000.000
G1 X68.805 Y41.577 E0.04902 F1200.000
G1 X71.195 Y41.577 E0.12984
G1 X71.833 Y42.215 E0.04902 F1200.000
G1 X71.833 Y47.779 E0.30235
G1 X71.195 Y48.417 E0.04902
G1 X68.805 Y48.417 E0.12984
G1 X68.167 Y47.779 E0.04902
G1 X68.167 Y42.260 E0.29990
G1 X68.603 Y42.395 F9000.000
G1 X68.986 Y42.012 E0.02941 F1200.000
G1 X71.014 Y42.012 E0.11023
G1 X71.397 Y42.395 E0.02941
G1 X71.397 Y47.599 E0.28274 F1200.000
G1 X71.014 Y47.982 E0.02941
G1 X68.986 Y47.982 E0.11023
G1 X68.603 Y47.599 E0.02941
G1 X68.603 Y42.440 E0.28029
G1 X69.038 Y42.575 F9000.000
G1 X69.166 Y42.448 E0.00980 F1200.000
G1 X70.834 Y42.448 E0.09062
G1 X70.962 Y42.575 E0.00980 F1200.000
G1 X70.962 Y47.418 E0.26313
G1 X70.834 Y47.546 E0.00980
G1 X69.166 Y47.546 E0.09062
G1 X69.038 Y47.418 E0.00980
G1 X69.038 Y42.620 E0.26069
G1 E-3.50000 F2400.00000
G1 X69.038 Y89.399 F9000.000
G1 E3.50000 F2400.00000
G1 X72.093 Y89.399 E0.16598 F1200.000
G1 X74.011 Y91.316 E0.14735
G1 X74.011 Y98.688 E0.40052 F1200.000
G1 X72.097 Y100.601 E0.14706
G1 X67.903 Y100.601 E0.22788
G1 X65.989 Y98.688 E0.14706
G1 X65.989 Y91.316 E0.40052
G1 X67.907 Y89.399 E0.14734
G1 X68.993 Y89.399 E0.05905
G1 X68.993 Y89.834 F9000.000
G1 X71.913 Y89.834 E0.15862 F1200.000
G1 X73.575 Y91.497 E0.12774 F1200.000
G1 X73.575 Y98.507 E0.38091
G1 X71.917 Y100.166 E0.12745
G1 X68.083 Y100.166 E0.20827
G1 X66.425 Y98.507 E0.12745
G1 X66.425 Y91.497 E0.38091
G1 X68.087 Y89.834 E0.12774
G1 X68.948 Y89.834 E0.04680
G1 X68.948 Y90.270 F9000.000
G1 X71.732 Y90.270 E0.15126 F1200.000
G1 X73.140 Y91.677 E0.10813
G1 X73.140 Y98.327 E0.36130 F1200.000
G1 X71.736 Y99.730 E0.10784
G1 X68.264 Y99.730 E0.18866
G1 X66.860 Y98.327 E0.10784
G1 X66.860 Y91.677 E0.36130
G1 X68.268 Y90.270 E0.10813
G1 X68.903 Y90.270 E0.03455
G1 X68.903 Y90.705 F9000.000
G1 X71.552 Y90.705 E0.14390 F1200.000
G1 X72.704 Y91.857 E0.08852 F1200.000
G1 X72.704 Y98.146 E0.34169
G1 X71.556 Y99.295 E0.08823
G1 X68.444 Y99.295 E0.16905
G1 X67.296 Y98.146 E0.08823
G1 X67.296 Y91.857 E0.34169
G1 X68.448 Y90.705 E0.08852
G1 X68.858 Y90.705 E0.02230
G1 X68.858 Y91.141 F9000.000
G1 X71.372 Y91.141 E0.13654 F1200.000
G1 X72.268 Y92.038 E0.06892
G1 X72.268 Y97.966 E0.32209 F1200.000
G1 X71.375 Y98.859 E0.06863
G1 X68.625 Y98.859 E0.14945
G1 X67.732 Y97.966 E0.06863
G1 X67.732 Y92.038 E0.32209
G1 X68.628 Y91.141 E0.06891
G1 X68.813 Y91.141 E0.01005
G1 X68.813 Y91.577 F9000.000
G1 X71.191 Y91.577 E0.12918 F1200.000
G1 X71.833 Y92.218 E0.04931 F1200.000
G1 X71.833 Y97.785 E0.30248
G1 X71.195 Y98.423 E0.04902
G1 X68.805 Y98.423 E0.12984
G1 X68.167 Y97.785 E0.04902
G1 X68.167 Y92.218 E0.30248
G1 X68.780 Y91.605 E0.04711
G1 X68.989 Y92.012 F9000.000
G1 X71.011 Y92.012 E0.10982 F1200.000
G1 X71.397 Y92.399 E0.02970
G1 X71.397 Y97.605 E0.28287 F1200.000
G1 X71.014 Y97.988 E0.02941
G1 X68.986 Y97.988 E0.11023
G1 X68.603 Y97.605 E0.02941
G1 X68.603 Y92.399 E0.28287
G1 X68.958 Y92.044 E0.02725
G1 X69.170 Y92.448 F9000.000
G1 X70.830 Y92.448 E0.09022 F1200.000
G1 X70.962 Y92.579 E0.01009 F1200.000
G1 X70.962 Y97.425 E0.26326
G1 X70.834 Y97.552 E0.00980
G1 X69.166 Y97.552 E0.09062
G1 X69.038 Y97.425 E0.00980
G1 X69.038 Y92.579 E0.26326
G1 X69.138 Y92.480 E0.00765
G1 E-3.50000 F2400.00000
G1 X69.506 Y95.499 F9000.000
G1 E3.50000 F2400.00000
G1 X69.506 Y92.922 E0.14001 F900.000
G1 X70.490 Y92.922 E0.05346
G1 X70.494 Y97.084 E0.22616
G1 X69.506 Y97.084 E0.05364 F900.000
G1 X69.506 Y95.544 E0.08371
G1 X69.766 Y95.349 F9000.000
G1 X70.000 Y96.867 F9000.000
G1 X69.998 Y93.140 E0.43491 F600.000
G1 E-3.50000 F2400.00000
G1 X70.494 Y44.505 F9000.000
G1 E3.50000 F2400.00000
G1 X70.494 Y47.078 E0.13983 F900.000
G1 X69.506 Y47.078 E0.05365 F900.000
G1 X69.506 Y42.916 E0.22616
G1 X70.494 Y42.916 E0.05365
G1 X70.494 Y44.460 E0.08389
G1 X70.234 Y44.655 F9000.000
G1 X70.000 Y43.133 F9000.000
G1 X70.000 Y46.860 E0.43491 F600.000
G1 E-3.50000 F2400.00000
G1 Z0.450 F9000.000
G1 X69.674 Y94.849 F9000.000
G1 E3.50000 F2400.00000
G1 X69.674 Y93.090 E0.02939 F600.000
G1 X70.323 Y93.090 E0.01083
G1 X70.326 Y96.917 E0.06391
G1 X69.674 Y96.917 E0.01088 F600.000
G1 X69.674 Y94.894 E0.03378
G1 X69.406 Y94.894 F9000.000
G1 X69.406 Y92.822 E0.03461 F600.000
G1 X70.590 Y92.822 E0.01977
G1 X70.594 Y97.184 E0.07286
G1 X69.406 Y97.184 E0.01983 F600.000
G1 X69.406 Y94.939 E0.03750
G1 X69.666 Y94.744 F9000.000
G1 X69.998 Y93.224 F9000.000
G1 X70.000 Y96.783 E0.12603 F600.000
G1 E-3.50000 F2400.00000
G1 X70.326 Y45.130 F9000.000
G1 E3.50000 F2400.00000
G1 X70.326 Y46.910 E0.02974 F600.000
G1 X69.674 Y46.910 E0.01089 F600.000
G1 X69.674 Y43.083 E0.06391
G1 X70.326 Y43.083 E0.01089
G1 X70.326 Y45.085 E0.03343
G1 X70.594 Y45.085 F9000.000
G1 X70.594 Y47.178 E0.03496 F600.000
G1 X69.406 Y47.178 E0.01983 F600.000
G1 X69.406 Y42.816 E0.07286
G1 X70.594 Y42.816 E0.01983
G1 X70.594 Y45.040 E0.03715
G1 X70.334 Y45.235 F9000.000
G1 X70.000 Y46.776 F9000.000
G1 X70.000 Y43.217 E0.12603 F600.000
G1 E-3.50000 F2400.00000
G1 Z0.600 F9000.000
G1 X69.674 Y94.815 F9000.000
G1 E3.50000 F2400.00000
G1 X69.674 Y93.090 E0.02882 F600.000
G1 X70.323 Y93.090 E0.01083
G1 X70.326 Y96.917 E0.06391
G1 X69.674 Y96.917 E0.01088 F600.000
G1 X69.674 Y94.860 E0.03434
G1 X69.406 Y94.860 F9000.000
G1 X69.406 Y92.822 E0.03404 F600.000
G1 X70.590 Y92.822 E0.01977
G1 X70.594 Y97.184 E0.07286
G1 X69.406 Y97.184 E0.01983 F600.000
G1 X69.406 Y94.905 E0.03806
G1 X69.666 Y94.710 F9000.000
G1 X69.998 Y93.224 F9000.000
G1 X70.000 Y96.783 E0.12603 F600.000
G1 E-3.50000 F2400.00000
G1 X70.326 Y45.073 F9000.000
G1 E3.50000 F2400.00000
G1 X70.326 Y46.910 E0.03068 F600.000
G1 X69.674 Y46.910 E0.01089 F600.000
G1 X69.674 Y43.083 E0.06391
G1 X70.326 Y43.083 E0.01089
G1 X70.326 Y45.028 E0.03248
G1 X70.594 Y45.028 F9000.000
G1 X70.594 Y47.178 E0.03590 F600.000
G1 X69.406 Y47.178 E0.01983 F600.000
G1 X69.406 Y42.816 E0.07286
G1 X70.594 Y42.816 E0.01983
G1 X70.594 Y44.983 E0.03621
G1 X70.334 Y45.178 F9000.000
G1 X70.000 Y43.217 F9000.000
G1 X70.000 Y46.776 E0.12603 F600.000
M106 S255
G1 E-3.50000 F2400.00000
G1 Z0.750 F9000.000
G1 X69.674 Y94.678 F9000.000
G1 E3.50000 F2400.00000
G1 X69.674 Y93.090 E0.02653 F600.000
G1 X70.323 Y93.090 E0.01083
G1 X70.326 Y96.917 E0.06391
G1 X69.674 Y96.917 E0.01088 F600.000
G1 X69.674 Y94.723 E0.03663
G1 X69.406 Y94.723 F9000.000
G1 X69.406 Y92.822 E0.03176 F600.000
G1 X70.590 Y92.822 E0.01977
G1 X70.594 Y97.184 E0.07286
G1 X69.406 Y97.184 E0.01983 F600.000
G1 X69.406 Y94.768 E0.04035
G1 X69.666 Y94.573 F9000.000
G1 X69.998 Y93.224 F9000.000
G1 X70.000 Y96.783 E0.12603 F600.000
G1 E-3.50000 F2400.00000
G1 X70.326 Y45.200 F9000.000
G1 E3.50000 F2400.00000
G1 X70.326 Y46.910 E0.02856 F600.000
G1 X69.674 Y46.910 E0.01089 F600.000
G1 X69.674 Y43.083 E0.06391
G1 X70.326 Y43.083 E0.01089
G1 X70.326 Y45.155 E0.03460
G1 X70.594 Y45.155 F9000.000
G1 X70.594 Y47.178 E0.03378 F600.000
G1 X69.406 Y47.178 E0.01983 F600.000
G1 X69.406 Y42.816 E0.07286
G1 X70.594 Y42.816 E0.01983
G1 X70.594 Y45.110 E0.03832
G1 X70.334 Y45.305 F9000.000
G1 X70.000 Y46.776 F9000.000
G1 X70.000 Y43.217 E0.12603 F600.000
G1 E-3.50000 F2400.00000
G1 Z0.900 F9000.000
G1 X70.324 Y95.216 F9000.000
G1 E3.50000 F2400.00000
G1 X70.326 Y96.917 E0.02840 F600.000
G1 X69.674 Y96.917 E0.01088 F600.000
G1 X69.674 Y93.090 E0.06391
G1 X70.323 Y93.090 E0.01083
G1 X70.324 Y95.171 E0.03476
G1 X70.592 Y95.171 F9000.000
G1 X70.594 Y97.184 E0.03363 F600.000
G1 X69.406 Y97.184 E0.01983 F600.000
G1 X69.406 Y92.822 E0.07286
G1 X70.590 Y92.822 E0.01977
G1 X70.592 Y95.126 E0.03848
G1 X70.332 Y95.321 F9000.000
G1 X70.000 Y96.783 F9000.000
G1 X69.998 Y93.224 E0.12603 F600.000
G1 E-3.50000 F2400.00000
G1 X69.674 Y45.312 F9000.000
G1 E3.50000 F2400.00000
G1 X69.674 Y43.083 E0.03722 F600.000
G1 X70.326 Y43.083 E0.01089
G1 X70.326 Y46.910 E0.06391
G1 X69.674 Y46.910 E0.01089 F600.000
G1 X69.674 Y45.357 E0.02594
G1 X69.406 Y45.357 F9000.000
G1 X69.406 Y42.816 E0.04245 F600.000
G1 X70.594 Y42.816 E0.01983
G1 X70.594 Y47.178 E0.07286
G1 X69.406 Y47.178 E0.01983 F600.000
G1 X69.406 Y45.402 E0.02966
G1 X69.666 Y45.207 F9000.000
G1 X70.000 Y46.776 F9000.000
G1 X70.000 Y43.217 E0.12603 F600.000
G1 E-3.50000 F2400.00000
G1 Z1.050 F9000.000
G1 X70.324 Y94.679 F9000.000
G1 E3.50000 F2400.00000
G1 X70.326 Y96.917 E0.03736 F600.000
G1 X69.674 Y96.917 E0.01088 F600.000
G1 X69.674 Y93.090 E0.06391
G1 X70.323 Y93.090 E0.01083
G1 X70.324 Y94.634 E0.02580
G1 X70.592 Y94.634 F9000.000
G1 X70.594 Y97.184 E0.04259 F600.000
G1 X69.406 Y97.184 E0.01983 F600.000
G1 X69.406 Y92.822 E0.07286
G1 X70.590 Y92.822 E0.01977
G1 X70.592 Y94.589 E0.02952
G1 X70.332 Y94.784 F9000.000
G1 X69.998 Y93.224 F9000.000
G1 X70.000 Y96.783 E0.12603 F600.000
G1 E-3.50000 F2400.00000
G1 X69.674 Y45.087 F9000.000
G1 E3.50000 F2400.00000
G1 X69.674 Y43.083 E0.03346 F600.000
G1 X70.326 Y43.083 E0.01089
G1 X70.326 Y46.910 E0.06391
G1 X69.674 Y46.910 E0.01089 F600.000
G1 X69.674 Y45.132 E0.02970
G1 X69.406 Y45.132 F9000.000
G1 X69.406 Y42.816 E0.03869 F600.000
G1 X70.594 Y42.816 E0.01983
G1 X70.594 Y47.178 E0.07286
G1 X69.406 Y47.178 E0.01983 F600.000
G1 X69.406 Y45.177 E0.03342
G1 X69.666 Y44.982 F9000.000
G1 X70.000 Y46.776 F9000.000
G1 X70.000 Y43.217 E0.12603 F600.000
G1 E-3.50000 F2400.00000
G1 Z1.200 F9000.000
G1 X70.324 Y94.790 F9000.000
G1 E3.50000 F2400.00000
G1 X70.326 Y96.917 E0.03552 F600.000
G1 X69.674 Y96.917 E0.01088 F600.000
G1 X69.674 Y93.090 E0.06391
G1 X70.323 Y93.090 E0.01083
G1 X70.324 Y94.745 E0.02764
G1 X70.592 Y94.745 F9000.000
G1 X70.594 Y97.184 E0.04075 F600.000
G1 X69.406 Y97.184 E0.01983 F600.000
G1 X69.406 Y92.822 E0.07286
G1 X70.590 Y92.822 E0.01977
G1 X70.592 Y94.700 E0.03136
G1 X70.332 Y94.895 F9000.000
G1 X69.998 Y93.224 F9000.000
G1 X70.000 Y96.783 E0.12603 F600.000
G1 E-3.50000 F2400.00000
G1 X70.326 Y44.753 F9000.000
G1 E3.50000 F2400.00000
G1 X70.326 Y46.910 E0.03603 F600.000
G1 X69.674 Y46.910 E0.01089 F600.000
G1 X69.674 Y43.083 E0.06391
G1 X70.326 Y43.083 E0.01089
G1 X70.326 Y44.708 E0.02714
G1 X70.594 Y44.708 F9000.000
G1 X70.594 Y47.178 E0.04125 F600.000
G1 X69.406 Y47.178 E0.01983 F600.000
G1 X69.406 Y42.816 E0.07286
G1 X70.594 Y42.816 E0.01983
G1 X70.594 Y44.663 E0.03086
G1 X70.334 Y44.858 F9000.000
G1 X70.000 Y43.217 F9000.000
G1 X70.000 Y46.776 E0.12603 F600.000
G1 E-3.50000 F2400.00000
G1 Z1.350 F9000.000
G1 X69.674 Y95.044 F9000.000
G1 E3.50000 F2400.00000
G1 X69.674 Y93.090 E0.03264 F600.000
G1 X70.323 Y93.090 E0.01083
G1 X70.326 Y96.917 E0.06391
G1 X69.674 Y96.917 E0.01088 F600.000
G1 X69.674 Y95.089 E0.03052
G1 X69.406 Y95.089 F9000.000
G1 X69.406 Y92.822 E0.03787 F600.000
G1 X70.590 Y92.822 E0.01977
G1 X70.594 Y97.184 E0.07286
G1 X69.406 Y97.184 E0.01983 F600.000
G1 X69.406 Y95.134 E0.03424
G1 X69.666 Y94.939 F9000.000
G1 X70.000 Y96.783 F9000.000
G1 X69.998 Y93.224 E0.12603 F600.000
G1 E-3.50000 F2400.00000
G1 X69.674 Y45.252 F9000.000
G1 E3.50000 F2400.00000
G1 X69.674 Y43.083 E0.03622 F600.000
G1 X70.326 Y43.083 E0.01089
G1 X70.326 Y46.910 E0.06391
G1 X69.674 Y46.910 E0.01089 F600.000
G1 X69.674 Y45.297 E0.02695
G1 X69.406 Y45.297 F9000.000
G1 X69.406 Y42.816 E0.04144 F600.000
G1 X70.594 Y42.816 E0.01983
G1 X70.594 Y47.178 E0.07286
G1 X69.406 Y47.178 E0.01983 F600.000
G1 X69.406 Y45.342 E0.03067
G1 X69.666 Y45.147 F9000.000
G1 X70.000 Y46.776 F9000.000
G1 X70.000 Y43.217 E0.12603 F600.000
G1 E-3.50000 F2400.00000
G1 Z1.500 F9000.000
G1 X70.324 Y94.829 F9000.000
G1 E3.50000 F2400.00000
G1 X70.326 Y96.917 E0.03487 F600.000
G1 X69.674 Y96.917 E0.01088 F600.000
G1 X69.674 Y93.090 E0.06391
G1 X70.323 Y93.090 E0.01083
G1 X70.324 Y94.784 E0.02829
G1 X70.592 Y94.783 F9000.000
G1 X70.594 Y97.184 E0.04010 F600.000
G1 X69.406 Y97.184 E0.01983 F600.000
G1 X69.406 Y92.822 E0.07286
G1 X70.590 Y92.822 E0.01977
G1 X70.592 Y94.738 E0.03201
G1 X70.332 Y94.934 F9000.000
G1 X69.998 Y93.224 F9000.000
G1 X70.000 Y96.783 E0.12603 F600.000
G1 E-3.50000 F2400.00000
G1 X70.326 Y45.005 F9000.000
G1 E3.50000 F2400.00000
G1 X70.326 Y46.910 E0.03181 F600.000
G1 X69.674 Y46.910 E0.01089 F600.000
G1 X69.674 Y43.083 E0.06391
G1 X70.326 Y43.083 E0.01089
G1 X70.326 Y44.960 E0.03135
G1 X70.594 Y44.960 F9000.000
G1 X70.594 Y47.178 E0.03704 F600.000
G1 X69.406 Y47.178 E0.01983 F600.000
G1 X69.406 Y42.816 E0.07286
G1 X70.594 Y42.816 E0.01983
G1 X70.594 Y44.915 E0.03507
G1 X70.334 Y45.110 F9000.000
G1 X70.000 Y43.217 F9000.000
G1 X70.000 Y46.776 E0.12603 F600.000
G1 E-3.50000 F2400.00000
G1 Z1.650 F9000.000
G1 X70.324 Y94.748 F9000.000
G1 E3.50000 F2400.00000
G1 X70.326 Y96.917 E0.03621 F600.000
G1 X69.674 Y96.917 E0.01088 F600.000
G1 X69.674 Y93.090 E0.06391
G1 X70.323 Y93.090 E0.01083
G1 X70.324 Y94.703 E0.02695
G1 X70.592 Y94.703 F9000.000
G1 X70.594 Y97.184 E0.04144 F600.000
G1 X69.406 Y97.184 E0.01983 F600.000
G1 X69.406 Y92.822 E0.07286
G1 X70.590 Y92.822 E0.01977
G1 X70.592 Y94.658 E0.03067
G1 X70.332 Y94.853 F9000.000
G1 X69.998 Y93.224 F9000.000
G1 X70.000 Y96.783 E0.12603 F600.000
G1 E-3.50000 F2400.00000
G1 X69.674 Y44.929 F9000.000
G1 E3.50000 F2400.00000
G1 X69.674 Y43.083 E0.03083 F600.000
G1 X70.326 Y43.083 E0.01089
G1 X70.326 Y46.910 E0.06391
G1 X69.674 Y46.910 E0.01089 F600.000
